src/components/00-materials/images-raw/Legal.svg

<svg width="96" height="96" viewBox="0 0 96 96" fill="none" xmlns="http://www.w3.org/2000/svg">
<path d="M21 77.0001H47.7C49.2913 77.0001 50.8174 77.6322 51.9426 78.7574C53.0679 79.8826 53.7 81.4088 53.7 83.0001H15C15 81.4088 15.6321 79.8826 16.7574 78.7574C17.8826 77.6322 19.4087 77.0001 21 77.0001V77.0001ZM23.1 70.9501H45.6C46.1304 70.9501 46.6391 71.1608 47.0142 71.5359C47.3893 71.9109 47.6 72.4196 47.6 72.9501V76.9501H21.1V72.9501C21.1 72.4196 21.3107 71.9109 21.6858 71.5359C22.0609 71.1608 22.5696 70.9501 23.1 70.9501V70.9501ZM60.88 34.6701L45.39 17.5701L24.21 36.5001L39.7 53.6001L60.88 34.6701Z" stroke="#00008F" stroke-width="2" stroke-linecap="round" stroke-linejoin="round"/>
<path d="M55.43 54.3401L59.97 50.2901M80.23 72.7101L52.56 42.1101L48.02 46.1101L75.69 76.7101C75.9537 77.0126 76.2744 77.2602 76.6339 77.4386C76.9933 77.617 77.3845 77.7227 77.7848 77.7496C78.1852 77.7765 78.587 77.7242 78.9671 77.5956C79.3473 77.467 79.6983 77.2646 80 77.0001C80.3013 76.7363 80.5467 76.415 80.7217 76.0549C80.8968 75.6949 80.9981 75.3034 81.0195 74.9036C81.041 74.5038 80.9821 74.1037 80.8466 73.727C80.711 73.3503 80.5013 73.0045 80.23 72.7101ZM40 54.0001L23.87 36.1301C23.4106 35.6451 22.7792 35.3598 22.1116 35.3355C21.444 35.3112 20.7935 35.5498 20.3 36.0001C20.0529 36.2182 19.8514 36.483 19.707 36.7792C19.5626 37.0755 19.4783 37.3974 19.4587 37.7264C19.4392 38.0554 19.4849 38.385 19.5933 38.6963C19.7016 39.0076 19.8705 39.2943 20.09 39.5401L36.25 57.3501C36.703 57.846 37.334 58.1423 38.0049 58.1742C38.6759 58.206 39.3321 57.9709 39.83 57.5201C40.3174 57.0747 40.6089 56.4546 40.6407 55.7951C40.6726 55.1357 40.4423 54.4904 40 54.0001V54.0001ZM65 31.6701L48.84 13.8201C48.3843 13.3288 47.7541 13.0359 47.0847 13.0041C46.4154 12.9723 45.7603 13.2042 45.26 13.6501C45.0125 13.8681 44.8107 14.1332 44.6664 14.4298C44.5222 14.7265 44.4383 15.0489 44.4197 15.3783C44.4011 15.7076 44.4481 16.0374 44.558 16.3484C44.668 16.6595 44.8386 16.9456 45.06 17.1901L61.22 35.0001C61.6713 35.4954 62.3006 35.7914 62.9699 35.8233C63.6392 35.8552 64.2938 35.6203 64.79 35.1701C65.2795 34.7323 65.5762 34.1188 65.6155 33.4633C65.6549 32.8078 65.4336 32.1633 65 31.6701V31.6701Z" stroke="#00008F" stroke-width="2" stroke-linecap="round" stroke-linejoin="round"/>
</svg>

<svg width="96" height="96" viewBox="0 0 96 96" fill="none" xmlns="http://www.w3.org/2000/svg"><path d="M21 77h26.7a6 6 0 016 6H15a6 6 0 016-6v0zm2.1-6.05h22.5a2 2 0 012 2v4H21.1v-4a2 2 0 012-2v0zm37.78-36.28l-15.49-17.1L24.21 36.5 39.7 53.6l21.18-18.93z" stroke="#00008F" stroke-width="2" stroke-linecap="round" stroke-linejoin="round"/><path d="M55.43 54.34l4.54-4.05m20.26 22.42l-27.67-30.6-4.54 4 27.67 30.6A3.052 3.052 0 0080 77a2.998 2.998 0 00.23-4.29zM40 54L23.87 36.13A2.55 2.55 0 0020.3 36a2.5 2.5 0 00-.21 3.54l16.16 17.81a2.54 2.54 0 003.58.17A2.5 2.5 0 0040 54v0zm25-22.33L48.84 13.82a2.56 2.56 0 00-4.174.61 2.491 2.491 0 00.394 2.76L61.22 35a2.53 2.53 0 003.57.17 2.49 2.49 0 00.21-3.5v0z" stroke="#00008F" stroke-width="2" stroke-linecap="round" stroke-linejoin="round"/></svg>
